icons/arduino.svg

<!--
  - The MIT License (MIT)
  -
  - Copyright (c) 2015-2024 Elior "Mallowigi" Boukhobza
  -
  - Permission is hereby granted, free of charge, to any person obtaining a copy
  - of this software and associated documentation files (the "Software"), to deal
  - in the Software without restriction, including without limitation the rights
  - to use, copy, modify, merge, publish, distribute, sublicense, and/or sell
  - copies of the Software, and to permit persons to whom the Software is
  - furnished to do so, subject to the following conditions:
  -
  - The above copyright notice and this permission notice shall be included in all
  - copies or substantial portions of the Software.
  -
  - THE SOFTWARE IS PROVIDED "AS IS", WITHOUT WARRANTY OF ANY KIND, EXPRESS OR
  - IMPLIED, INCLUDING BUT NOT LIMITED TO THE WARRANTIES OF MERCHANTABILITY,
  - FITNESS FOR A PARTICULAR PURPOSE AND NONINFRINGEMENT. IN NO EVENT SHALL THE
  - AUTHORS OR COPYRIGHT HOLDERS BE LIABLE FOR ANY CLAIM, DAMAGES OR OTHER
  - LIABILITY, WHETHER IN AN ACTION OF CONTRACT, TORT OR OTHERWISE, ARISING FROM,
  - OUT OF OR IN CONNECTION WITH THE SOFTWARE OR THE USE OR OTHER DEALINGS IN THE
  - SOFTWARE.
  -
  -->

<svg version="1.1" xmlns="http://www.w3.org/2000/svg" width="16px" height="16px" viewBox="0 0 512 512">
  <path fill="#00979c" data-iconColor="Arduino"
        d="M512,255.9983826c0-67.0360565-56.3491516-121.4421234-126.2998047-121.4421234l0,0c-6.3150024,0-13.1157532,0.4857635-19.4307556,1.4573059l0,0C312.3491516,143.7858582,275.9165344,182.6473389,256,212.2792206l0,0c-20.4022827-29.6318817-56.3491516-68.4933624-110.269455-76.2656555l0,0c-6.3149872-0.9715424-13.1157532-1.4573059-19.4307404-1.4573059l0,0C56.8349113,134.5562592,0,188.962326,0,255.9983826l0,0c0,67.0360718,56.3491478,121.4421387,125.8140411,121.4421387l0,0c6.3149872,0,13.1157532-0.4857788,19.4307404-1.4573059l0,0c53.9203033-7.7722778,90.3529358-46.6337891,110.2694397-76.2656555l0,0c20.4022827,29.6318665,56.3491516,68.4933472,110.2694702,76.2656555l0,0c6.3150024,0.9715271,13.1157227,1.4573059,19.4307251,1.4573059l0,0C455.6508484,377.9262695,512,323.5202026,512,255.9983826L512,255.9983826z M139.4155579,333.721344c-4.3719177,0.4857788-8.7438202,0.9715576-13.1157532,0.9715576l0,0c-45.6622314,0-83.0664062-35.4611206-83.0664062-78.6945038l0,0c0-43.2333984,37.404171-78.6945038,83.0664062-78.6945038l0,0c4.3719177,0,8.7438354,0.4857635,13.1157532,0.9715271l0,0c51.0056915,7.2865448,82.0948639,57.320694,92.7817993,77.7229767l0,0C221.5104218,276.4006653,190.4212494,326.4348145,139.4155579,333.721344L139.4155579,333.721344z M279.8026428,255.9983826c10.6869202-19.9165039,41.7760925-70.4364319,92.7817688-77.7229614l0,0c4.3719177-0.4857635,8.743866-0.9715271,13.1157532-0.9715271l0,0c45.6622314,0,83.0664062,35.4610901,83.0664062,78.6945038l0,0c0,43.2333832-37.4041748,78.6945038-83.0664062,78.6945038l0,0c-4.3719482,0-8.743866-0.4857788-13.1157532-0.9715576l0,0C321.5787354,326.4348145,290.489563,276.4006653,279.8026428,255.9983826L279.8026428,255.9983826z M91.3244705,268.6283569h75.7798996l0,0v-24.2884216l0,0H91.3244705l0,0V268.6283569z M394.4440002,268.6283569h25.2599792l0,0v-24.2884216l0,0h-25.2599792l0,0v-25.7457275l0,0h-24.7741699l0,0v25.7457275l0,0h-25.2599487l0,0v24.2884216l0,0h25.2599487l0,0v25.7457275l0,0h24.7741699l0,0V268.6283569z"/>
</svg>

<svg xmlns="http://www.w3.org/2000/svg" viewBox="0 0 512 512"><path fill="#00979c" d="M512 255.998c0-67.036-56.35-121.442-126.3-121.442-6.315 0-13.116.486-19.43 1.458-53.92 7.772-90.353 46.633-110.27 76.265-20.402-29.632-56.35-68.493-110.27-76.265-6.314-.972-13.115-1.458-19.43-1.458C56.835 134.556 0 188.962 0 255.998s56.35 121.443 125.814 121.443c6.315 0 13.116-.486 19.43-1.458 53.921-7.772 90.354-46.634 110.27-76.265 20.403 29.631 56.35 68.493 110.27 76.265 6.315.972 13.115 1.458 19.43 1.458C455.651 377.926 512 323.52 512 255.998m-372.584 77.723c-4.372.486-8.744.972-13.116.972-45.662 0-83.067-35.461-83.067-78.695s37.405-78.694 83.067-78.694c4.372 0 8.744.486 13.116.971 51.005 7.287 82.094 57.321 92.781 77.723-10.687 20.403-41.776 70.437-92.781 77.723m140.387-77.723c10.687-19.916 41.776-70.436 92.781-77.723 4.372-.485 8.744-.971 13.116-.971 45.662 0 83.067 35.461 83.067 78.694s-37.405 78.695-83.067 78.695c-4.372 0-8.744-.486-13.116-.972-51.005-7.286-82.094-57.32-92.781-77.723m-188.479 12.63h75.78V244.34h-75.78zm303.12 0h25.26V244.34h-25.26v-25.746H369.67v25.746h-25.26v24.288h25.26v25.746h24.774z" data-iconColor="Arduino"/></svg>
